X:1
T:Solid Rock, LM refrain
T:William Batchelder Bradbury, 1863
T:Solid Rock, LM refrain
T:Public Domain
C:William Batchelder Bradbury, 1863
Z:Public Domain
%%score ( 1 2 ) ( 3 4 )
L:1/8
M:3/4
K:F
V:1 treble 
V:2 treble 
V:3 bass 
V:4 bass 
V:1
 C2 | [CF][CA] [Fc]2 [FA]2 | [FA][EG] [EG]2 [FA]2 | [FB][FB] [FB]2 [DG]2 | [CF][CE] [CF]2 C2 | %5
 [CF][CA] [Fc]2 [FA]2 | [FA][EG] [EG]2 [FA]2 | [FB][FB] [FB]2 [DG]2 | [CF][CE] [CF]2 | [Fc]2 | %10
 [Fc][Ec] [Fc]2 [Fc]2 | [Fd][Fd] [Fd]2 [Fd]2 | [Fc][CA] [CA]2 [CF]2 | [CA][CA] [CG]2 C2 | %14
 [CF][A,F] [DF]2 [CA]2 | [CG][B,G] [A,F]2 |] %16
V:2
 C2 | x6 | x6 | x6 | x6 | x6 | x6 | x6 | x4 | x2 | x6 | x6 | x6 | x6 | x6 | x4 |] %16
V:3
 C,2 | [F,A,][F,A,] [F,A,]2 [F,C]2 | [C,C][C,C] [C,C]2 [F,C]2 | [B,,D][B,,D] [B,,D]2 [B,,B,]2 | %4
 [C,A,][C,G,] [F,A,]2 C,2 | [F,A,][F,A,] [F,A,]2 [F,C]2 | [C,C][C,C] [C,C]2 [F,C]2 | %7
 [B,,D][B,,D] [B,,D]2 [B,,B,]2 | [C,A,][C,G,] [F,A,]2 | [F,A,]2 | [F,A,][G,B,] [A,C]2 [F,A,]2 | %11
 [B,,B,][B,,B,] [B,,B,]2 [B,,B,]2 | A,F, F,2 [F,A,]2 | [F,,F,][A,,F,] [C,E,]2 [C,E,]2 | %14
 [A,,F,][F,,F,] [B,,F,]2 [F,,F,]2 | [C,F,][C,E,] [F,,F,]2 |] %16
V:4
 C,2 | x6 | x6 | x6 | x6 | x6 | x6 | x6 | x4 | x2 | x6 | x6 | F, x5 | x6 | x6 | x4 |] %16

